X: 909
T: Huish the Cat.
T: Hush the Cat.
T: Dance Light, For My Heart Lies Under Your Feet.
B:O'Neill's 909
Z:Transcribed by Tom Keays (htkeays@mailbox.syr.edu)
Z:abc 1.6
M:6/8
R:Jig
L:1/8
K:Gmix
G>AG c2e | d<dA c2e | G>AG c2d | ecA A2c |
G>AG c2e | d<dA c2e | g>fe f2d | ecA (A2{BA}G) :|
|| gfe f2d | edc f2d | gfe f2d | edA A2G |
gfe f2d | edc f2d | G>AG f2d | ecA (A2{BA}G) :|


